X: 15066
T: German Stone Collector, The
R: reel
M: 4/4
K: Eminor
~E2 EB AFDF|(3GFE BG eBGB|(3cBA ec ~B2BG|Aceg fdAF|
E/E/E EB AFDF|(3GFE BG eBGB|Aceg fdAF|1 GBAF GEED:|2 GBAF GEed||
|:cege ~f2ed|eB B/B/B eBGB|AFdA ~f2ed|eB B/B/B eBGB|
cege ~f2ed|(3bag af geBG|Aceg fdAF|1 GBAF GEed:|2 GBAF GEED||

